X: 10358
T: Don't Touch That Green Linnet
R: jig
M: 6/8
K: Dmajor
|:D2F FEF|Add dfa|baf afd|~e3 fdA|
D2F FEF|Add dfa|baf afe|1 fdB A2F:|2 fdB A2f||
|:a3 f2a|g2B bge|afd B/c/de|dcB ~A3|
afd dfa|bge egb|afd B/c/de|1 fdc d2f:|2 fdc dAG||
|:F2A fdA|G2B gdB|=c^ce ~a3|ba^g a2f|
afd dAF|G2B gdB|=c^ce age|1 fdc dAG:|2 fdc dAF||

